X:637
T:The Fairy Queen
C:O'Carolan
B:O'Neill's 637
Z: 1997 by John Chambers <jc@trillian.mit.edu>
N:"Moderate"
N:Trailing grace notes in bar 32 not standard in abc (yet).
N:O'Neill has single bar at start of 4th section.
M:3/4
L:1/8
K:G
G4 D2|F4 D2|G4 D2|AGF GA BA \
|G3 F ED|CB,4 A,/B,/D|E4 ~F2|G4 cBA|
|""G4 G//B//d3/2|""F4 F//A//d3/2|E3 F ED|CB,4 D2 \
|FED EF GE|DB ~A3 G/A/|G6-|G4 Z2||
||BABcBc|BABcBG|A4 A2|A2 B2 d2 \
|""G3 ~G dG|""F3 ~F dF|EDEFED|CB,4 D/E/F|
|GFEDB,A,|G,4 FG|A3 G FE|D4 GA \
|B4 E2|A4 D2|~G6 F/G/|G4 z2||
||"ff".G2 .G2 .F2|.E2 .D2 .C2|B,DGB, A,G|G,4 z2 \
|"p"G2 G2 D2|E2 F2 G2|ABAGFE|.D.G,.B,.D.G.A|
|[B4G4] zB|[A4F4] zA|"f"G2 G2 ED|CB,4 GF \
|EDEFED|CB,A,G,A,B,D|DE6|z2 z2 d/e/f||
|g2 g2 f2|e2 d2 c2|BdgBAg|G4 ~FE/F/ \
|GFEDEF|GFEFGA|[B6G6]|z2 zBcd|
|edefef|agfgagf|edefed|HB4 gf \
|edef gd|eB A4|G2 G4-|G6|]
